X: 421
P: Longways for as many as will
M: C|
L: 1/8
K: Dm
|:\
a4 g4 | f2 gf e2 A2 | de fg e2 A2 | de fg e2 A2 |\
a2 ba g2 ag | f2 gf e2 A2 | de fg e2 ^c2 | d8 :|
|:\

